!!!!SEGMENT: pl-cz--ii-87--004-003_hepner--msza-st-graduale.krn
!!!cenid: 18xx:1190
!!!COM: Hepner
!!!COM-rismID:
!!!CDT: ~1800-~1899
!!!CNT:
!!!OPR: Msza St.
!!!OTL: Graduale
!!!OMV: 003
!!!PDT: 1888
!!!AGN: Sacred; Mass
!!!SMS-siglum: PL-CZ
!!!SMS-shelfmark: II-87
!!!SMS-shelfwork: 004-003 M
!!!SMS-variant:
!!!SMS-altvar:
!!!NIFC-rismSourceID: 300033227
!!!NIFC-islandoraID: pl-cz:33881
!!!URL-pdf-islandora: https://repozytorium.nifc.pl/islandora/object/pl-cz%3A33881/datastream/PDF/view
!!!URL-scan:
!!!ONB-nifc: UWAGA: części Mszy: Kirie, Gloria, Graduale, Credo, Offertorium, Sanctus, Benedictus, Agnus, Communio, Benedicio
!!!OMD: Moderato
!!!AIN: 1 organ 1 vox
!!!key: C
**kern	**kern	**text	**text
*part2	*part1	*part1	*part1
*staff2	*staff1	*staff1	*staff1
*I"Organo	*I"Voce	*	*
*Iorgan	*Ivox	*	*
*ICklav	*ICvox	*	*
*clefF4	*clefG2	*	*
*k[]	*k[]	*	*
*C:	*C:	*	*
*M4/4	*M4/4	*	*
*met(c)	*met(c)	*	*
=1	=1	=1	=1
2CC/ 2C	2c/	.	.
2EE/ 2E	2e/	.	.
=!|:	=!|:	=!|:	=!|:
8G\L	8g/L	Bóg	Na
8G\J	8g/J	to	tych
=2	=2	=2	=2
2C\ 2c\	2e\ 2g\ 2cc\	Bóg	to
2C/	2c/ 2e/ 2g/	sam	wa
=3	=3	=3	=3
2.BB\ 2.G\	(>2d/ 2a/	wtych	ra-
.	4g/)	wy-	-wych?
4BB\ 4G\	4d/ 4f/	-ra-	gło-
=4	=4	=4	=4
4C\ 4G\	8d/L 8f/	-za-	.
.	8c/J 8e/	.	.
8E\L	4c/ 4e/	-ch	-sach
8G\J	.	.	.
4c\	4r	.	.
4C\ 4A\ 4c\	8d/L	swo-	stoi
.	8f#X/J	-je	.
=5	=5	=5	=5
4G\ 4B\	4d/ 4g/	pra-	swie-
4D\ 4A\	8f/L	-wdy	-ta
.	8a/J 8cc/	nam	.
4D\	4d/ 4g/ 4b/	o-	wia-
4D\	4c/ 4f#X/ 4a/	-gła-	-ra
=6	=6	=6	=6
8G/L	2.B/ 2.d/ 2.g/	-sza	nasza
8BB/	.	.	.
8D/	.	.	.
8G/J	.	.	.
4G\	.	.	.
=:|!	=:|!	=:|!	=:|!
8G\L	8g/L	Pa-	.
8G\J	8g/J	-nie	.
!!LO:LB:g=original
=7	=7	=7	=7
4G\	4g/ 4b/	ty-	.
4G\	4g/ 4b/	-siąc,	.
4G\	4g/ 4b/ 4dd/	wie-	.
4G\	4g/ 4b/ 4dd/	-kow,	.
=8	=8	=8	=8
8G/L	(>4.dd\ 4.ff\	spły-	.
8GG/	.	.	.
8BB/	.	.	.
8D/J	8cc\) 8ee\	-nie,	.
4G\	4b\ 4dd\	sw-	.
8G\L	8g/L	-ia-	.
8G\J	8g/J	-ta,	.
=9	=9	=9	=9
4E\ 4e\	4ee\	skru-	.
4C\ 4c\	4cc\	-szy	.
!	!LO:SIC:v:s=3a/	!	!
4AA\ 4A\	4g/	się,	.
4D\ 4d\	4dd\	bu-	.
=10	=10	=10	=10
4BB\ 4B\	4b\	-do-	.
4GG\ 4G\	4g/	-wa	.
4r	4r	.	.
8C\L 8E\	8ee\L 8gg\	sgi-	.
8D\J 8F\	8dd\J 8ff\	-nie,	.
=11	=11	=11	=11
4E\ 4G\	4cc\ 4ee\	zie-	.
4E\ 4G#X\	4b\ 4dd\	-mia	.
4E\ 4A\	4a\ 4cc\	nie-	.
4C\ 4E\ 4c\	4g\ 4b-X\	-bo	.
=12	=12	=12	=12
2.F\ 2.A\ 2.c\	2.f/ 2.a/	minie	.
4r	8f/L 8a/	nie	.
.	8f/J 8a/ 8cc/	prze-	.
=13	=13	=13	=13
4r	4e/ 4g/	-mi-	.
4C\ 4c\	4e/ 4g/	-nią	.
4C\ 4c\	4f/ 4a/	Two-	.
4C\ 4c\	4d/ 4f/ 4g/ 4b/	-je	.
!!LO:LB:g=original
=14	=14	=14	=14
2C\ 2c\	2e\ 2g\ 2cc\	słowa	.
2GG\ 2G\	2a\ 2dd\ 2ff\	nie	.
=15	=15	=15	=15
4C\ 4c\	(>8g\L 8ee\	prze-	.
.	8gg\J)	.	.
4FF\ 4F\	8a\L 8ff\	-mi-	.
.	8f\J 8dd\	-ną	.
4G\	4e\ 4g\ 4cc\	Two-	.
4G\	4d/ 4f/ 4g/ 4b/	-je	.
=16	=16	=16	=16
*	*^	*	*
4C\ 4c\	4e/ 4g/ 4cc/	2ryy	słowa.	.
4r	4r	.	.	.
2G\	4.b/	2d\ 2g\	.	.
.	16cc/LL	.	.	.
.	16dd/JJ	.	.	.
*	*v	*v	*	*
=17	=17	=17	=17
8c>\ 8e>\	8cc/	.	.
8r>	8r	.	.
4ryy	4r	.	.
2g>\ 2b>\ 2dd>\ 2ff>\	4.bb/	.	.
.	16ccc/LL	.	.
.	16ddd/JJ	.	.
=18	=18	=18	=18
8cc>\ 8ee>\	8ccc/	.	.
8r>	8r	.	.
4r>	4ryy	.	.
4C\ 4c\	4e/ 4g/ 4cc/	.	.
4C\ 4c\	4e/ 4g/ 4cc/	.	.
=19	=19	=19	=19
1C\ 1c\	1e/ 1g/ 1cc/	.	.
!!LO:PB:g=original
==	==	==	==
*-	*-	*-	*-
!!!system-decoration: [(s1,s2)]
!!!RDF**kern: < = below
!!!RDF**kern: > = above
!!!ENC: Marcin Jachim
!!!END: 2020-11-06
!!!ENC: Marta Chmielewska
!!!END: 2021-11-15
